X:2849
T:Polonäs
T:ur Kumlins notsamling (nr 134)
B:Kumlins notsamling, nr 134
B:http://www.smus.se/earkiv/fmk/browselarge.php?lang=sw&katalogid=Ma+4&bildnr=00032
O:Närke
R:Slängpolska
Z:Nils Liberg
N:Sista noten ändrad från fjärdedel till åttondel i denna transkription.
M:3/4
L:1/16
K:Dm
A2 | d2>e2 f4 a4 | g2fg a2ag fed^c | d2de f2fg a2a2 | g2fg a4 A2 ::
e2 | f2af e2fe d2de | f2ed ^cdec A4 | f2af e2fe defg | aAce d4 D2 :|
(:musicend:)
(:music:)
